frontend/public/svg/finance/saving.svg

<svg width="168" height="153" viewBox="0 0 168 153" fill="none" xmlns="http://www.w3.org/2000/svg">
<g clip-path="url(#clip0)">
<path d="M38.6071 139.004C37.6226 142.554 37.0726 143.557 36.0829 146.843C35.8063 147.949 35.2043 148.945 34.3548 149.704C33.5054 150.463 32.4476 150.949 31.3185 151.1C24.8864 152.046 18.447 153.169 11.9053 152.242C5.90369 151.389 2.07073 147.624 1.77078 141.568C1.26015 131.255 1.08029 120.926 0.814476 110.602C0.73637 107.574 0.696419 104.533 0.886103 101.513C1.27203 95.38 4.14797 92.1128 10.2716 91.696C16.9813 91.2365 23.7345 91.3488 30.4692 91.3402C33.1142 91.337 34.7504 93.1032 35.9167 95.2815C36.4923 96.3566 36.9012 97.519 37.3567 98.5632C41.5475 97.9725 45.6017 97.2269 49.6894 96.862C57.167 96.1952 64.5311 96.9933 71.495 99.8917C79.6021 103.269 87.9651 103.989 96.5973 103.164C98.7199 102.973 100.858 103.042 102.964 103.37C109.872 104.42 113.193 109.549 111.467 116.273C111.329 116.809 111.123 117.323 110.749 118.455C113.174 118.279 115.32 118.197 117.448 117.957C126.568 116.925 135.073 113.675 143.636 110.633C147.439 109.282 151.204 107.781 155.087 106.718C157.366 106.136 159.723 105.929 162.068 106.103C166.222 106.366 168.158 109.385 167.095 113.378C166.223 116.66 164.218 119.164 161.764 121.385C154.65 127.818 146.318 132.112 137.335 135.249C124.689 139.664 111.772 142.973 98.4462 144.517C80.7736 146.67 62.5971 146.691 45.7586 140.911C43.3558 140.079 40.8544 139.738 38.6071 139.004ZM38.7311 132.639C42.8004 133.712 46.5711 134.724 50.3483 135.698C62.1584 138.738 74.1643 140.466 86.3466 139.645C104.527 138.421 121.948 133.73 138.841 127.033C145.347 124.506 151.357 120.854 156.599 116.246C157.74 115.115 158.813 113.918 159.812 112.66L159.251 111.816C156.833 112.533 154.386 113.166 152.002 113.982C143.728 116.814 135.536 119.9 127.198 122.522C120.615 124.591 113.827 125.44 106.917 123.943C105.936 123.784 104.93 123.941 104.045 124.391C95.2669 128.848 85.788 129.651 76.1989 129.703C73.9635 129.598 71.7523 129.192 69.6257 128.495C69.289 128.423 68.9714 128.284 68.6911 128.084C68.4108 127.884 68.1739 127.63 67.996 127.336C67.8175 127.042 67.7013 126.715 67.6541 126.374C67.6075 126.034 67.6304 125.686 67.7223 125.355C68.0571 124.225 68.7836 123.251 69.7721 122.609C70.9929 122.038 72.3213 121.732 73.6694 121.71C77.3626 121.417 81.0663 121.251 84.7661 121.046C89.9512 120.755 95.0851 120.079 99.831 117.889C101.755 117.013 103.475 115.743 104.88 114.162C106.6 112.159 105.684 110.19 103.042 109.922C100.915 109.772 98.7796 109.795 96.657 109.994C87.9277 110.555 79.3815 109.954 71.239 106.381C69.694 105.713 68.1115 105.135 66.4989 104.651C58.409 102.123 49.7641 101.968 41.5888 104.204C38.4095 105.057 38.4384 105.195 38.6071 108.385C38.8749 113.541 39.2287 118.696 39.3232 123.857C39.375 126.64 38.9635 129.431 38.7292 132.64L38.7311 132.639ZM29.3783 97.6752C23.9963 97.6752 18.8559 97.6253 13.7154 97.6903C9.11124 97.7481 7.9633 98.9209 7.86288 103.517C7.6056 115.293 7.22164 127.069 7.20654 138.845C7.20064 143.833 9.67766 145.459 13.2179 145.194C17.9121 144.843 22.6036 144.418 27.2781 143.856C29.7439 143.56 30.1784 142.795 30.1345 140.206C29.9898 138.08 29.9838 135.946 30.1167 133.819C31.3637 122.935 30.4828 112.073 29.942 101.206C29.8148 100.02 29.6261 98.8415 29.3764 97.6752H29.3783Z" fill="black"/>
<path d="M95.6083 40.885C102.786 45.7957 105.444 53.0514 106.245 61.3213C107.647 75.8101 99.0494 84.8368 88.9661 88.6908C80.6588 91.8688 72.1383 93.482 63.2983 90.8869C53.047 87.8776 47.0014 79.655 46.6234 68.998C46.1508 55.6828 54.1339 43.5502 67.221 38.2024C75.1889 34.9502 90.6673 37.5055 95.6083 40.885ZM71.243 84.7974C75.5827 85.3146 83.4804 83.4506 87.3889 81.7316C94.6001 78.5602 99.8823 72.7227 98.655 62.0629C97.6311 53.1721 93.1181 46.3994 84.5102 44.6168C80.0176 43.6867 71.2424 43.2693 66.778 45.1635C57.0303 49.2984 53.2452 59.0779 53.7532 69.7653C54.2507 80.2155 64.7803 84.0275 71.243 84.7987V84.7974Z" fill="black"/>
<path d="M18.4848 112.204C15.5635 112.239 13.5117 110.362 13.4073 107.56C13.2885 104.347 15.8213 101.532 18.8457 101.513C22.3571 101.493 25.0705 103.548 25.0934 106.239C25.1177 109.144 21.7691 112.163 18.4848 112.204Z" fill="black"/>
<path d="M77.9573 54.756V62.7285C79.1197 63.1662 80.2066 63.5279 81.2547 63.9794C85.3778 65.7516 86.3919 69.6272 83.6891 73.1904C82.5733 74.658 81.6964 75.252 78.4128 76.7596C78.103 78.3348 77.7912 79.8857 77.4939 81.4406C77.3292 82.3069 76.9157 82.9777 75.9699 82.9994C74.9723 83.023 74.6218 82.2118 74.4439 81.4275C74.1105 79.9566 73.8827 78.4621 73.5802 76.8062C72.3732 76.4839 71.0585 76.1426 69.7504 75.779C69.1171 75.63 68.4968 75.4292 67.8963 75.1785C67.3752 74.9973 66.9393 74.6304 66.6722 74.1474C66.4051 73.665 66.325 73.1005 66.4478 72.5623C66.6604 71.5187 67.5563 70.8591 68.9366 70.949C70.4403 71.0475 71.9341 71.3028 73.3944 71.4853C74.0042 69.8037 74.0744 68.8028 73.8079 65.94C72.7906 65.5587 71.6899 65.222 70.6575 64.7441C66.4674 62.8119 65.5442 58.6265 68.5132 55.0875C69.7386 53.5464 71.3532 52.3604 73.1903 51.6522C73.678 51.521 74.1046 51.2252 74.398 50.8149C74.6914 50.4045 74.8338 49.905 74.8003 49.4016C74.8108 48.6074 74.9834 47.8238 75.3083 47.0991C75.4481 46.8656 75.6424 46.6694 75.8741 46.5269C76.1058 46.3844 76.3683 46.3 76.6394 46.2808C76.9026 46.3552 77.1434 46.4911 77.343 46.6774C77.5425 46.8637 77.6954 47.0948 77.7873 47.3518C77.9691 48.2787 78.0676 49.22 78.0827 50.1643C79.0809 50.3915 80.0668 50.67 81.0362 50.9985C82.5838 51.6076 83.3163 52.8081 83.1279 54.1759C82.9606 55.3869 82.3022 55.7964 81.1727 55.2988C80.1849 54.8657 79.2641 54.2211 77.9573 54.756ZM74.1374 56.3366C72.0161 57.5948 70.9318 58.9329 71.3237 59.9299C71.7917 61.1212 72.8779 61.4211 74.1374 61.5852V56.3366ZM78.1004 71.2778C79.5095 70.7574 80.8012 70.1352 80.7585 68.7076C80.7224 67.5105 79.4032 67.2637 78.3301 67.1022C78.2684 67.093 78.1988 67.1482 77.9264 67.2499C77.9264 68.0835 77.9114 68.9958 77.9337 69.9074C77.9435 70.3065 78.0275 70.7042 78.1004 71.2778Z" fill="black"/>
<path d="M131.63 18.4273V26.4005C132.792 26.8383 133.878 27.1998 134.926 27.6475C139.05 29.4196 140.064 33.296 137.361 36.8592C136.245 38.3262 135.368 38.9201 132.085 40.4284C131.775 42.0036 131.463 42.8981 131.166 44.4523C131.001 45.3187 130.587 45.9896 129.642 46.0119C128.644 46.0349 128.293 45.2243 128.116 44.44C127.782 42.9692 127.555 42.131 127.252 40.4751C126.045 40.1522 124.731 39.8114 123.422 39.4478C122.789 39.2983 122.169 39.0973 121.568 38.8467C121.047 38.6653 120.611 38.2981 120.344 37.8154C120.077 37.3327 119.997 36.7683 120.12 36.2305C120.332 35.1875 121.229 34.5279 122.608 34.6178C124.113 34.7156 125.606 34.9715 127.067 35.154C127.676 33.4725 127.746 32.4709 127.48 29.6086C126.463 29.2266 125.362 28.8906 124.327 28.4128C120.136 26.4805 119.214 22.2951 122.182 18.7561C123.408 17.215 125.023 16.029 126.86 15.3208C127.347 15.1895 127.774 14.8935 128.067 14.4832C128.36 14.0729 128.503 13.5736 128.47 13.0702C128.479 12.276 128.652 11.4925 128.977 10.7679C129.117 10.5344 129.311 10.3379 129.543 10.1954C129.775 10.0528 130.037 9.96822 130.309 9.94873C130.572 10.0233 130.812 10.1594 131.012 10.3458C131.212 10.5322 131.364 10.7636 131.456 11.0206C131.637 11.9475 131.737 12.8886 131.752 13.8329C132.751 14.0597 133.736 14.3382 134.706 14.6671C136.253 15.2756 136.986 16.4761 136.797 17.8439C136.63 19.0555 135.971 19.4643 134.842 18.9668C133.857 18.5363 132.936 17.8924 131.63 18.4273ZM127.81 20.0078C125.688 21.2666 124.604 22.6049 124.995 23.6019C125.463 24.7925 126.55 25.0931 127.81 25.2572V20.0078ZM131.772 34.95C133.181 34.4295 134.473 33.8067 134.43 32.3791C134.395 31.182 133.075 30.9351 132.002 30.7743C131.94 30.7651 131.87 30.8202 131.598 30.9219C131.598 31.7555 131.583 32.6679 131.605 33.5789C131.615 33.9786 131.7 34.3764 131.772 34.95Z" fill="black"/>
<path d="M148.574 4.655C155.752 9.56571 158.41 16.8217 159.211 25.0915C160.613 39.5802 152.015 48.6068 141.932 52.4608C133.625 55.6381 125.105 57.252 116.265 54.6568C106.013 51.6475 99.9684 43.4243 99.5897 32.7673C99.1171 19.4522 107.1 7.32044 120.187 1.97196C128.155 -1.27822 143.633 1.27749 148.574 4.655ZM124.21 48.5673C128.55 49.0852 136.446 47.2205 140.356 45.5022C147.567 42.3308 152.848 36.4927 151.621 25.8331C150.597 16.943 146.085 10.1695 137.477 8.38758C132.984 7.45755 124.21 7.04012 119.745 8.93431C109.997 13.0692 106.212 22.8488 106.72 33.5353C107.216 43.9868 117.747 47.7988 124.21 48.57V48.5673Z" fill="black"/>
</g>
<defs>
<clipPath id="clip0">
<rect width="167.366" height="152.27" fill="white" transform="translate(0.143555 0.45459)"/>
</clipPath>
</defs>
</svg>

<svg xmlns="http://www.w3.org/2000/svg" width="168" height="153" fill="none" viewBox="0 0 168 153"><g fill="#000" clip-path="url(#a)"><path d="M38.607 139.004c-.984 3.55-1.534 4.553-2.524 7.839a5.685 5.685 0 0 1-4.764 4.257c-6.433.946-12.872 2.069-19.414 1.142-6.001-.853-9.834-4.618-10.134-10.674-.51-10.313-.69-20.642-.957-30.966-.078-3.028-.118-6.069.072-9.089.386-6.133 3.262-9.4 9.386-9.817 6.71-.46 13.463-.347 20.197-.356 2.645-.003 4.281 1.763 5.448 3.941.575 1.076.984 2.238 1.44 3.282 4.19-.59 8.245-1.336 12.332-1.701 7.478-.667 14.842.131 21.806 3.03 8.107 3.377 16.47 4.097 25.102 3.272a26.2 26.2 0 0 1 6.367.206c6.908 1.05 10.229 6.179 8.503 12.903-.138.536-.344 1.05-.718 2.182 2.425-.176 4.571-.258 6.699-.498 9.12-1.032 17.625-4.282 26.188-7.324 3.803-1.351 7.568-2.852 11.451-3.915a21.7 21.7 0 0 1 6.981-.615c4.154.263 6.09 3.282 5.027 7.275-.872 3.282-2.877 5.786-5.331 8.007-7.114 6.433-15.446 10.727-24.429 13.864-12.646 4.415-25.563 7.724-38.889 9.268-17.672 2.153-35.849 2.174-52.687-3.606-2.403-.832-4.905-1.173-7.152-1.907m.124-6.365c4.07 1.073 7.84 2.085 11.617 3.059 11.81 3.04 23.816 4.768 35.999 3.947 18.18-1.224 35.601-5.915 52.494-12.612a59.6 59.6 0 0 0 17.758-10.787 41 41 0 0 0 3.213-3.586l-.561-.844c-2.418.717-4.865 1.35-7.249 2.166-8.274 2.832-16.466 5.918-24.804 8.54-6.583 2.069-13.371 2.918-20.281 1.421a4.7 4.7 0 0 0-2.872.448c-8.778 4.457-18.257 5.26-27.846 5.312a25 25 0 0 1-6.573-1.208 2.5 2.5 0 0 1-1.63-1.159 2.52 2.52 0 0 1-.274-1.981 4.95 4.95 0 0 1 2.05-2.746 9.6 9.6 0 0 1 3.897-.899c3.694-.293 7.397-.459 11.097-.664 5.185-.291 10.32-.967 15.065-3.157a15.2 15.2 0 0 0 5.049-3.727c1.72-2.003.804-3.972-1.838-4.24a39 39 0 0 0-6.385.072c-8.73.561-17.275-.04-25.418-3.613a43 43 0 0 0-4.74-1.73 44.3 44.3 0 0 0-24.91-.447c-3.18.853-3.15.991-2.982 4.181.268 5.156.622 10.311.716 15.472.052 2.783-.36 5.574-.594 8.783zm-9.353-34.964c-5.382 0-10.522-.05-15.663.015-4.604.058-5.752 1.23-5.852 5.827-.257 11.776-.641 23.552-.656 35.328-.006 4.988 2.47 6.614 6.01 6.349 4.695-.351 9.387-.776 14.061-1.338 2.466-.296 2.9-1.061 2.857-3.65a49 49 0 0 1-.018-6.387c1.247-10.884.366-21.746-.175-32.613a34 34 0 0 0-.566-3.53zm66.23-56.79c7.178 4.91 9.836 12.166 10.637 20.436 1.402 14.49-7.196 23.516-17.279 27.37-8.307 3.178-16.828 4.791-25.668 2.196-10.251-3.01-16.297-11.232-16.675-21.889-.472-13.315 7.51-25.448 20.598-30.796 7.968-3.252 23.446-.697 28.387 2.683M71.243 84.797c4.34.518 12.237-1.346 16.146-3.065 7.211-3.172 12.493-9.01 11.266-19.67-1.024-8.89-5.537-15.663-14.145-17.445-4.492-.93-13.268-1.348-17.732.547-9.748 4.134-13.533 13.914-13.025 24.601.498 10.45 11.027 14.263 17.49 15.034z"/><path d="M18.485 112.204c-2.921.035-4.973-1.842-5.078-4.644-.118-3.213 2.414-6.028 5.439-6.047 3.511-.02 6.224 2.035 6.247 4.726.025 2.905-3.324 5.924-6.608 5.965m59.472-57.448v7.972c1.163.438 2.25.8 3.298 1.251 4.123 1.773 5.137 5.648 2.434 9.211-1.116 1.468-1.993 2.062-5.276 3.57-.31 1.575-.622 3.126-.92 4.68-.164.867-.577 1.538-1.523 1.56-.998.023-1.348-.788-1.526-1.573-.334-1.47-.561-2.965-.864-4.62-1.207-.323-2.522-.664-3.83-1.028a12 12 0 0 1-1.854-.6 2.24 2.24 0 0 1-1.448-2.617c.212-1.043 1.108-1.703 2.489-1.613 1.503.099 2.997.354 4.457.536.61-1.681.68-2.682.414-5.545-1.017-.381-2.118-.718-3.15-1.196-4.19-1.932-5.114-6.117-2.145-9.657a11.06 11.06 0 0 1 4.677-3.435 2.18 2.18 0 0 0 1.61-2.25c.01-.795.183-1.578.508-2.303a1.7 1.7 0 0 1 1.331-.818 1.71 1.71 0 0 1 1.148 1.07c.182.928.28 1.869.296 2.813q1.498.341 2.953.834c1.548.61 2.28 1.81 2.092 3.178-.167 1.21-.826 1.62-1.955 1.123-.988-.433-1.909-1.078-3.216-.543m-3.82 1.58c-2.12 1.259-3.205 2.597-2.813 3.594.468 1.191 1.554 1.491 2.813 1.655zM78.1 71.279c1.41-.52 2.701-1.143 2.659-2.57-.037-1.198-1.356-1.444-2.429-1.606-.062-.009-.131.046-.404.148 0 .834-.015 1.746.008 2.657.01.4.094.797.166 1.37m53.53-52.851v7.974c1.162.437 2.248.799 3.296 1.247 4.124 1.772 5.138 5.648 2.435 9.211-1.116 1.467-1.993 2.061-5.276 3.57-.31 1.575-.622 2.47-.919 4.023-.165.867-.579 1.538-1.524 1.56-.998.023-1.349-.788-1.526-1.572-.334-1.47-.561-2.309-.864-3.965-1.207-.323-2.521-.664-3.83-1.027a12 12 0 0 1-1.854-.601 2.24 2.24 0 0 1-1.448-2.617c.212-1.042 1.109-1.702 2.488-1.612 1.505.098 2.998.353 4.459.536.609-1.682.679-2.683.413-5.545-1.017-.382-2.118-.718-3.153-1.196-4.191-1.933-5.113-6.118-2.145-9.657a11.06 11.06 0 0 1 4.678-3.435 2.18 2.18 0 0 0 1.61-2.25 5.8 5.8 0 0 1 .507-2.303 1.7 1.7 0 0 1 1.332-.82 1.72 1.72 0 0 1 1.147 1.073c.181.926.281 1.868.296 2.812a30 30 0 0 1 2.954.834c1.547.609 2.28 1.81 2.091 3.177-.167 1.211-.826 1.62-1.955 1.123-.985-.43-1.906-1.075-3.212-.54m-3.82 1.58c-2.122 1.26-3.206 2.598-2.815 3.595.468 1.19 1.555 1.491 2.815 1.655zm3.962 14.943c1.409-.52 2.701-1.143 2.658-2.57-.035-1.198-1.355-1.445-2.428-1.606-.062-.009-.132.046-.404.148 0 .834-.015 1.746.007 2.657.01.4.095.797.167 1.371"/><path d="M148.574 4.655c7.178 4.91 9.836 12.167 10.637 20.437 1.402 14.488-7.196 23.515-17.279 27.369-8.307 3.177-16.827 4.791-25.667 2.196-10.252-3.01-16.297-11.233-16.675-21.89-.473-13.315 7.51-25.447 20.597-30.795 7.968-3.25 23.446-.695 28.387 2.683M124.21 48.567c4.34.518 12.236-1.346 16.146-3.065 7.211-3.171 12.492-9.01 11.265-19.669-1.024-8.89-5.536-15.663-14.144-17.445-4.493-.93-13.267-1.348-17.732.546-9.748 4.135-13.533 13.915-13.025 24.601.496 10.452 11.027 14.264 17.49 15.035z"/></g><defs><clipPath id="a"><path fill="#fff" d="M.144.455H167.51v152.27H.144z"/></clipPath></defs></svg>
